X:136
T:Green Gates
Z: id:dc-reel-125
M:C
L:1/8
K:G Major
D|GBdg egdB|GBdg egdf|eAcA eAcA|cdef gedB|!
GBdg egdB|GBdg e2dB|cdef gedc|BGAF G3:|!
B|dgg2 bgg2|dgfg egdf|eAcA eAcA|cdef gedB|!
dgg2 bgg2|dgfg e2dB|cdef gedc|BGAF G3:|!

